coreui/free/cil-router.svg

<svg xmlns="http://www.w3.org/2000/svg" viewBox="0 0 512 512">
  <path fill="var(--ci-primary-color, currentColor)" d="M443.057,132.943l22.634-22.634a143.764,143.764,0,0,0-211.382,0l22.634,22.634a111.838,111.838,0,0,1,166.114,0Z" class="ci-primary"/>
  <path fill="var(--ci-primary-color, currentColor)" d="M299.615,155.615l22.7,22.7a47.913,47.913,0,0,1,75.362,0l22.7-22.7a79.829,79.829,0,0,0-120.77,0Z" class="ci-primary"/>
  <path fill="var(--ci-primary-color, currentColor)" d="M472,280H376V216H344v64H40a24.028,24.028,0,0,0-24,24V416a24.028,24.028,0,0,0,24,24H472a24.028,24.028,0,0,0,24-24V304A24.028,24.028,0,0,0,472,280Zm-8,128H48V312H464Z" class="ci-primary"/>
  <rect width="32" height="32" x="96" y="344" fill="var(--ci-primary-color, currentColor)" class="ci-primary"/>
  <rect width="32" height="32" x="176" y="344" fill="var(--ci-primary-color, currentColor)" class="ci-primary"/>
  <rect width="32" height="32" x="256" y="344" fill="var(--ci-primary-color, currentColor)" class="ci-primary"/>
</svg>

<svg viewBox="0 0 512 512" xmlns="http://www.w3.org/2000/svg"><g><path d="M443.057 132.94l22.63-22.64v-.001c-53.83-58.38-144.78-62.06-203.15-8.24 -2.86 2.63-5.61 5.38-8.24 8.23l22.63 22.63v0c41.36-45.88 112.08-49.53 157.95-8.17 2.85 2.57 5.58 5.3 8.16 8.16Z"/><path d="M299.615 155.61l22.7 22.7h-.001c16.34-20.82 46.46-24.44 67.27-8.09 3 2.36 5.72 5.07 8.08 8.08l22.7-22.7v-.001c-28.84-33.35-79.25-37.01-112.6-8.18 -2.92 2.52-5.65 5.25-8.18 8.17Z"/><path d="M472 280h-96v-64h-32v64H40v0c-13.25.01-23.99 10.75-24 24v112 0c.01 13.24 10.75 23.98 24 24h432 -.001c13.24-.02 23.98-10.76 24-24V304v0c-.02-13.25-10.76-23.99-24-24Zm-8 128H48v-96h416Z"/><path d="M96 344h32v32H96Z"/><path d="M176 344h32v32h-32Z"/><path d="M256 344h32v32h-32Z"/></g></svg>
